X:3285
T:Kilty Town
O:england
M:4/4
L:1/8
C:Charlie Lennon
S:Frankie Gavin
K:G
A|BGG2 d2cA|BdcA BGG2|FDD2 cDD2|BDD2 cBA2|
BGG2 d2cA|BdcA BGG2|FAde f2eg|fdcA G3:|
d|g3a gBB2|eBgB eBB2|dega b2ag|eaab agef|
g2bg f2af|e3f edcB|c2fc B2dB|AGAB G3:|
d|g3d BGG2|FGAB cBcA|GBBA BABc|dAAG FAD2|
G2BG F2AF|E3F EDCB,|C2EC B,2DB,|1A,B,CD GBdf:|2A,G,A,B, G,3||
"Setting of third part for flute, etc"
d|g3d BGG2|FGAB cBcA|GBBA BABc|dAAG FAD2|
G2BG F2AF|E3d edcB|c2ec B2dB|AGAB G3:|


